build/img/sprite/icon-rate.svg

<svg width="58" height="58" viewBox="0 0 58 58" fill="none" xmlns="http://www.w3.org/2000/svg">
<circle cx="29" cy="29" r="29" fill="#60D2CC"/>
<mask id="path-2-inside-1_810_12370" fill="white">
<path fill-rule="evenodd" clip-rule="evenodd" d="M16 13.75C14.8954 13.75 14 14.6454 14 15.75V38.75C14 39.8546 14.8954 40.75 16 40.75H23.8904L27.5858 44.4454C28.3668 45.2265 29.6332 45.2265 30.4142 44.4454L34.1096 40.75H42C43.1046 40.75 44 39.8546 44 38.75V15.75C44 14.6454 43.1046 13.75 42 13.75H16Z"/>
</mask>
<path d="M23.8904 40.75L25.3046 39.3358L24.7188 38.75H23.8904V40.75ZM27.5858 44.4454L26.1716 45.8596H26.1716L27.5858 44.4454ZM30.4142 44.4454L29 43.0312H29L30.4142 44.4454ZM34.1096 40.75V38.75H33.2812L32.6954 39.3358L34.1096 40.75ZM16 15.75V15.75V11.75C13.7909 11.75 12 13.5409 12 15.75H16ZM16 38.75V15.75H12V38.75H16ZM16 38.75H16H12C12 40.9591 13.7909 42.75 16 42.75V38.75ZM23.8904 38.75H16V42.75H23.8904V38.75ZM29 43.0312L25.3046 39.3358L22.4762 42.1642L26.1716 45.8596L29 43.0312ZM29 43.0312H29L26.1716 45.8596C27.7337 47.4217 30.2663 47.4217 31.8284 45.8596L29 43.0312ZM32.6954 39.3358L29 43.0312L31.8284 45.8596L35.5238 42.1642L32.6954 39.3358ZM42 38.75H34.1096V42.75H42V38.75ZM42 38.75V42.75C44.2091 42.75 46 40.9591 46 38.75H42ZM42 15.75V38.75H46V15.75H42ZM42 15.75H46C46 13.5409 44.2091 11.75 42 11.75V15.75ZM16 15.75H42V11.75H16V15.75Z" fill="white" mask="url(#path-2-inside-1_810_12370)"/>
<path d="M32.8585 29.9823L33.8442 29.8132L32.8585 29.9823L33.5497 34.0122L29.9307 32.1095C29.348 31.8032 28.652 31.8032 28.0693 32.1095L24.4503 34.0122L25.1415 29.9823C25.2527 29.3335 25.0376 28.6715 24.5663 28.212L21.6384 25.3581L25.6846 24.7701C26.336 24.6755 26.8992 24.2663 27.1905 23.676L29 20.0096L30.8095 23.676C31.1008 24.2663 31.664 24.6755 32.3154 24.7701L36.3616 25.3581L33.4337 28.212C32.9624 28.6715 32.7473 29.3335 32.8585 29.9823Z" stroke="white" stroke-width="2"/>
</svg>

<svg width="58" height="58" fill="none" xmlns="http://www.w3.org/2000/svg"><circle cx="29" cy="29" r="29" fill="#60D2CC"/><mask id="a" fill="#fff"><path fill-rule="evenodd" clip-rule="evenodd" d="M16 13.75a2 2 0 00-2 2v23a2 2 0 002 2h7.89l3.696 3.695a2 2 0 002.828 0l3.696-3.695H42a2 2 0 002-2v-23a2 2 0 00-2-2H16z"/></mask><path d="M23.89 40.75l1.415-1.414-.586-.586h-.829v2zm3.696 3.695l-1.414 1.415 1.414-1.415zm2.828 0L29 43.031l1.414 1.414zm3.696-3.695v-2h-.829l-.586.586 1.415 1.414zM16 15.75v-4a4 4 0 00-4 4h4zm0 23v-23h-4v23h4zm0 0h-4a4 4 0 004 4v-4zm7.89 0H16v4h7.89v-4zM29 43.031l-3.695-3.695-2.829 2.828 3.696 3.696L29 43.03zm0 0l-2.828 2.829a4 4 0 005.656 0L29 43.03zm3.695-3.695L29 43.03l2.828 2.829 3.696-3.696-2.829-2.828zM42 38.75h-7.89v4H42v-4zm0 0v4a4 4 0 004-4h-4zm0-23v23h4v-23h-4zm0 0h4a4 4 0 00-4-4v4zm-26 0h26v-4H16v4z" fill="#fff" mask="url(#a)"/><path d="M32.858 29.982l.986-.169-.986.17.692 4.03-3.62-1.904a2 2 0 00-1.86 0l-3.62 1.903.692-4.03a2 2 0 00-.576-1.77l-2.928-2.854 4.047-.588a2 2 0 001.506-1.094L29 20.01l1.81 3.666a2 2 0 001.505 1.094l4.047.588-2.928 2.854a2 2 0 00-.575 1.77z" stroke="#fff" stroke-width="2"/></svg>
